Papirus/16x16/actions/draw-bezier-curves.svg

<?xml version="1.0" encoding="UTF-8" standalone="no"?>
<!--Created with Inkscape (http://www.inkscape.org/)-->
<svg xmlns:dc="http://purl.org/dc/elements/1.1/" xmlns:cc="http://creativecommons.org/ns#" xmlns:rdf="http://www.w3.org/1999/02/22-rdf-syntax-ns#" xmlns:svg="http://www.w3.org/2000/svg" xmlns="http://www.w3.org/2000/svg" xmlns:sodipodi="http://sodipodi.sourceforge.net/DTD/sodipodi-0.dtd" xmlns:inkscape="http://www.inkscape.org/namespaces/inkscape" width="16" height="16" id="svg3049" version="1.1" inkscape:version="0.91 r13725" sodipodi:docname="draw-bezier-curves.svg" inkscape:export-filename="/home/uri/.kde/share/icons/NITRUX-KDE/16x16/actions/view-right-new.png" inkscape:export-xdpi="30" inkscape:export-ydpi="30">
    <defs id="defs3051">
        <style type="text/css" id="current-color-scheme">
            .ColorScheme-Text { color:#4d4d4d; } .ColorScheme-Background { color:#eff0f1; } .ColorScheme-Highlight { color:#3daee9; } .ColorScheme-ViewText { color:#31363b; } .ColorScheme-ViewBackground { color:#fcfcfc; } .ColorScheme-ViewHover { color:#93cee9; } .ColorScheme-ViewFocus{ color:#3daee9; } .ColorScheme-ButtonText { color:#31363b; } .ColorScheme-ButtonBackground { color:#eff0f1; } .ColorScheme-ButtonHover { color:#93cee9; } .ColorScheme-ButtonFocus{ color:#3daee9; }
        </style>
    </defs>
    <sodipodi:namedview id="base" pagecolor="#000000" bordercolor="#666666" borderopacity="1.0" inkscape:pageopacity="0.0" inkscape:pageshadow="2" inkscape:zoom="24.411306" inkscape:cx="-11.108099" inkscape:cy="8.8330706" inkscape:document-units="px" inkscape:current-layer="layer1" showgrid="false" fit-margin-top="0" fit-margin-left="0" fit-margin-right="0" fit-margin-bottom="0" inkscape:window-width="1600" inkscape:window-height="847" inkscape:window-x="0" inkscape:window-y="30" inkscape:window-maximized="1" inkscape:showpageshadow="false" borderlayer="true" inkscape:snap-bbox="true" inkscape:object-nodes="true" inkscape:snap-global="true" showguides="false">
        <inkscape:grid type="xygrid" id="grid4085"/>
        <sodipodi:guide position="2.0000044,14.00003" orientation="12,0" id="guide4075"/>
        <sodipodi:guide position="2.0000044,2.0000296" orientation="0,12" id="guide4077"/>
        <sodipodi:guide position="14.000004,2.0000296" orientation="-12,0" id="guide4079"/>
        <sodipodi:guide position="14.000004,14.00003" orientation="0,-12" id="guide4081"/>
    </sodipodi:namedview>
    <metadata id="metadata3054">
        <rdf:RDF>
            <cc:Work rdf:about="">
                <dc:format>
                    image/svg+xml
                </dc:format>
                <dc:type rdf:resource="http://purl.org/dc/dcmitype/StillImage"/>
                <dc:title/>
            </cc:Work>
        </rdf:RDF>
    </metadata>
    <g inkscape:label="Capa 1" inkscape:groupmode="layer" id="layer1" transform="translate(-421.71429,-531.79074)">
        <path style="fill:#000000;fill-opacity:1;fill-rule:evenodd;stroke:none;opacity:0.5" d="M 12.5 1 A 2.5 2.5 0 0 0 10.050781 3 L 2 3 L 2 4 C 3.85517 4.95878 5.1650519 6.4794944 5.3574219 7.3027344 C 5.5659588 8.1951633 5.3336358 9.2145624 4.7089844 10.3125 A 2.5 2.5 0 0 0 3.5 10 A 2.5 2.5 0 0 0 1 12.5 A 2.5 2.5 0 0 0 3.5 15 A 2.5 2.5 0 0 0 5.9492188 13 L 9 13 L 9 14 L 9 15 L 14 15 L 14 10 L 9 10 L 9 11 L 9 12 L 5.9453125 12 A 2.5 2.5 0 0 0 5.5019531 11.005859 C 6.3543366 9.6604157 6.7107534 8.3809872 6.4257812 7.140625 C 6.1320226 5.8619857 5.2413533 4.8645012 3.96875 4 L 10.054688 4 A 2.5 2.5 0 0 0 12.5 6 A 2.5 2.5 0 0 0 15 3.5 A 2.5 2.5 0 0 0 12.5 1 z " transform="translate(421.71429,531.79074)" id="path4139"/>
    </g>
</svg>

<?xml version="1.0" encoding="UTF-8" standalone="no"?>
<!--Created with Inkscape (http://www.inkscape.org/)-->
<svg id="svg3049" xmlns:rdf="http://www.w3.org/1999/02/22-rdf-syntax-ns#" xmlns="http://www.w3.org/2000/svg" height="16" width="16" version="1.1" xmlns:cc="http://creativecommons.org/ns#" xmlns:dc="http://purl.org/dc/elements/1.1/">
 <defs id="defs3051">
 </defs>
 <metadata id="metadata3054">
  <rdf:RDF>
   <cc:Work rdf:about="">
    <dc:format>image/svg+xml</dc:format>
    <dc:type rdf:resource="http://purl.org/dc/dcmitype/StillImage"/>
    <dc:title/>
   </cc:Work>
  </rdf:RDF>
 </metadata>
 <g id="layer1" transform="translate(-421.71 -531.79)">
  <path id="path4139" opacity=".5" d="m12.5 1a2.5 2.5 0 0 0 -2.449 2h-8.051v1c1.8552 0.9588 3.1651 2.4795 3.3574 3.3027 0.2086 0.8925-0.0238 1.9119-0.6484 3.0093a2.5 2.5 0 0 0 -1.209 -0.312 2.5 2.5 0 0 0 -2.5 2.5 2.5 2.5 0 0 0 2.5 2.5 2.5 2.5 0 0 0 2.4492 -2h3.0508v1 1h5v-5h-5v1 1h-3.0547a2.5 2.5 0 0 0 -0.4433 -0.994c0.8523-1.3456 1.2088-2.625 0.9238-3.8654-0.2938-1.2786-1.1844-2.2761-2.457-3.1406h6.0862a2.5 2.5 0 0 0 2.445 2 2.5 2.5 0 0 0 2.5 -2.5 2.5 2.5 0 0 0 -2.5 -2.5z" fill-rule="evenodd" transform="translate(421.71 531.79)"/>
 </g>
</svg>
